X: 103
T: Xue gai shanliang There has been a fall of snow on the pass
L: 1/16
M: 2/4
K: C
E2 G A2< c2 A [I:setbarnb 1]| 
G2> A2G4 | 
E2 G A2< c2 A | 
G8 | 
E2 G A2< c2 A | 
G2 A c2< C2 D | 
E2> E2 D E G2 | 
C8 |]

@@@ Tune index: 8771
